assets/1. 1-F/Elevator/Color/Elevator-color.svg

<svg width="100%" height="100%" viewBox="0 0 32 32" fill="none" xmlns="http://www.w3.org/2000/svg">
<g filter="url(#filter0_ii_18_25440)">
<rect x="2.06604" y="2.0625" width="27.875" height="27.875" rx="3.6" fill="url(#paint0_linear_18_25440)"/>
<rect x="2.06604" y="2.0625" width="27.875" height="27.875" rx="3.6" fill="url(#paint1_radial_18_25440)"/>
</g>
<g filter="url(#filter1_i_18_25440)">
<rect x="5.52991" y="8.52783" width="20.9402" height="17.9849" rx="2.4" stroke="#E5DFF3"/>
</g>
<g filter="url(#filter2_i_18_25440)">
<path d="M16 10.8921V23.9121" stroke="#E6DDF7" stroke-linecap="round"/>
</g>
<circle cx="10.5159" cy="12.5132" r="1.47342" fill="url(#paint2_radial_18_25440)"/>
<circle cx="21.4844" cy="12.5132" r="1.47342" fill="url(#paint3_radial_18_25440)"/>
<g filter="url(#filter3_i_18_25440)">
<path d="M8.8905 16.0171V23.6377C8.8905 23.9478 9.14185 24.1992 9.45203 24.1992C9.76208 24.1992 10.0135 23.9478 10.0135 23.6377V19.4918C10.0135 19.2097 10.2422 18.981 10.5243 18.981C10.8065 18.981 11.0352 19.2097 11.0352 19.4918V23.6377C11.0352 23.9478 11.2865 24.1992 11.5967 24.1992C11.9067 24.1992 12.1582 23.9478 12.1582 23.6377L12.1586 16.0171C12.1586 15.826 12.3135 15.6711 12.5045 15.6711C12.6957 15.6711 12.8506 15.826 12.8506 16.0171V18.1324C12.8506 18.4425 13.1019 18.6939 13.4121 18.6939C13.7222 18.6939 13.9736 18.4425 13.9736 18.1324V15.5903C13.9736 15.038 13.5259 14.5903 12.9736 14.5903H8.07544C7.52319 14.5903 7.07544 15.038 7.07544 15.5903V18.1324C7.07544 18.4425 7.32678 18.6939 7.63696 18.6939C7.94702 18.6939 8.19849 18.4425 8.19849 18.1324V16.0171C8.19849 15.826 8.35339 15.6711 8.54456 15.6711C8.7356 15.6711 8.8905 15.826 8.8905 16.0171Z" fill="#E8DBFC"/>
</g>
<g filter="url(#filter4_i_18_25440)">
<path d="M18.282 15.4605C18.4582 14.9285 18.9556 14.5693 19.5161 14.5693H23.4526C24.013 14.5693 24.5104 14.9285 24.6866 15.4605L25.0711 16.6211H25.0691L25.3672 17.5135C25.4674 17.8135 25.3054 18.1379 25.0055 18.2381C24.7055 18.3383 24.3811 18.1763 24.2809 17.8764L23.6305 15.9289C23.5717 15.7529 23.3814 15.6579 23.2054 15.7167C23.0295 15.7755 22.9345 15.9658 22.9933 16.1417L23.1534 16.6211H23.1482L24.2157 19.9231C24.2992 20.1814 24.1066 20.4461 23.8351 20.4461H23.1098L23.1097 23.6589C23.1097 23.969 22.8583 24.2204 22.5482 24.2204C22.2381 24.2204 21.9867 23.969 21.9867 23.6589L21.9868 20.978C21.9868 20.6959 21.7581 20.4672 21.4759 20.4672C21.1938 20.4672 20.9651 20.6959 20.9651 20.978L20.965 23.6589C20.965 23.969 20.7137 24.2204 20.4035 24.2204C20.0934 24.2204 19.842 23.969 19.842 23.6589L19.8421 20.4461H19.1406C18.8695 20.4461 18.6769 20.1822 18.7596 19.9241L19.8179 16.6211H19.8152L19.8804 16.4261L19.9884 16.0889C20.0144 15.9292 19.9216 15.7696 19.7632 15.7167C19.5872 15.6579 19.3969 15.7529 19.3382 15.9289L18.6877 17.8764C18.5875 18.1763 18.2631 18.3383 17.9632 18.2381C17.6632 18.1379 17.5012 17.8135 17.6014 17.5135L17.8995 16.6211H17.8975L18.282 15.4605Z" fill="#E8DBFC"/>
</g>
<g filter="url(#filter5_f_18_25440)">
<path d="M28.2535 4.5625V27.4375" stroke="url(#paint4_linear_18_25440)" stroke-width="1.5" stroke-linecap="round"/>
</g>
<g filter="url(#filter6_f_18_25440)">
<path d="M5.52991 3.875H27.3112" stroke="url(#paint5_linear_18_25440)" stroke-width="1.5" stroke-linecap="round"/>
</g>
<path d="M12.261 4.72496L11.1656 6.58981C11.0481 6.7898 11.1923 7.04176 11.4242 7.04176H13.638C13.8711 7.04176 14.0152 6.78743 13.8953 6.58747L12.7769 4.72261C12.6598 4.5273 12.3763 4.52859 12.261 4.72496Z" fill="#E5DFF2"/>
<path d="M12.261 4.72496L11.1656 6.58981C11.0481 6.7898 11.1923 7.04176 11.4242 7.04176H13.638C13.8711 7.04176 14.0152 6.78743 13.8953 6.58747L12.7769 4.72261C12.6598 4.5273 12.3763 4.52859 12.261 4.72496Z" fill="url(#paint6_radial_18_25440)"/>
<path d="M19.7631 6.89369L20.8585 5.02884C20.976 4.82885 20.8318 4.57689 20.5998 4.57689L18.3861 4.57689C18.1529 4.57689 18.0089 4.83123 18.1288 5.03118L19.2471 6.89604C19.3642 7.09135 19.6477 7.09006 19.7631 6.89369Z" fill="#E5DFF2"/>
<path d="M19.7631 6.89369L20.8585 5.02884C20.976 4.82885 20.8318 4.57689 20.5998 4.57689L18.3861 4.57689C18.1529 4.57689 18.0089 4.83123 18.1288 5.03118L19.2471 6.89604C19.3642 7.09135 19.6477 7.09006 19.7631 6.89369Z" fill="url(#paint7_radial_18_25440)"/>
<defs>
<filter id="filter0_ii_18_25440" x="2.06604" y="1.0625" width="28.875" height="28.875" filterUnits="userSpaceOnUse" color-interpolation-filters="sRGB">
<feFlood flood-opacity="0" result="BackgroundImageFix"/>
<feBlend mode="normal" in="SourceGraphic" in2="BackgroundImageFix" result="shape"/>
<feColorMatrix in="SourceAlpha" type="matrix" values="0 0 0 0 0 0 0 0 0 0 0 0 0 0 0 0 0 0 127 0" result="hardAlpha"/>
<feOffset dx="1" dy="-1"/>
<feGaussianBlur stdDeviation="1"/>
<feComposite in2="hardAlpha" operator="arithmetic" k2="-1" k3="1"/>
<feColorMatrix type="matrix" values="0 0 0 0 0.188235 0 0 0 0 0.470588 0 0 0 0 0.843137 0 0 0 1 0"/>
<feBlend mode="normal" in2="shape" result="effect1_innerShadow_18_25440"/>
<feColorMatrix in="SourceAlpha" type="matrix" values="0 0 0 0 0 0 0 0 0 0 0 0 0 0 0 0 0 0 127 0" result="hardAlpha"/>
<feOffset dy="-1"/>
<feGaussianBlur stdDeviation="1"/>
<feComposite in2="hardAlpha" operator="arithmetic" k2="-1" k3="1"/>
<feColorMatrix type="matrix" values="0 0 0 0 0.27451 0 0 0 0 0.34902 0 0 0 0 0.8 0 0 0 1 0"/>
<feBlend mode="normal" in2="effect1_innerShadow_18_25440" result="effect2_innerShadow_18_25440"/>
</filter>
<filter id="filter1_i_18_25440" x="5.02991" y="7.72783" width="22.2402" height="19.2849" filterUnits="userSpaceOnUse" color-interpolation-filters="sRGB">
<feFlood flood-opacity="0" result="BackgroundImageFix"/>
<feBlend mode="normal" in="SourceGraphic" in2="BackgroundImageFix" result="shape"/>
<feColorMatrix in="SourceAlpha" type="matrix" values="0 0 0 0 0 0 0 0 0 0 0 0 0 0 0 0 0 0 127 0" result="hardAlpha"/>
<feOffset dx="0.3" dy="-0.3"/>
<feGaussianBlur stdDeviation="0.15"/>
<feComposite in2="hardAlpha" operator="arithmetic" k2="-1" k3="1"/>
<feColorMatrix type="matrix" values="0 0 0 0 0.92549 0 0 0 0 0.886275 0 0 0 0 0.988235 0 0 0 1 0"/>
<feBlend mode="normal" in2="shape" result="effect1_innerShadow_18_25440"/>
</filter>
<filter id="filter2_i_18_25440" x="15.5" y="10.3921" width="1.45" height="14.02" filterUnits="userSpaceOnUse" color-interpolation-filters="sRGB">
<feFlood flood-opacity="0" result="BackgroundImageFix"/>
<feBlend mode="normal" in="SourceGraphic" in2="BackgroundImageFix" result="shape"/>
<feColorMatrix in="SourceAlpha" type="matrix" values="0 0 0 0 0 0 0 0 0 0 0 0 0 0 0 0 0 0 127 0" result="hardAlpha"/>
<feOffset dx="0.45"/>
<feGaussianBlur stdDeviation="0.225"/>
<feComposite in2="hardAlpha" operator="arithmetic" k2="-1" k3="1"/>
<feColorMatrix type="matrix" values="0 0 0 0 0.945098 0 0 0 0 0.917647 0 0 0 0 1 0 0 0 1 0"/>
<feBlend mode="normal" in2="shape" result="effect1_innerShadow_18_25440"/>
</filter>
<filter id="filter3_i_18_25440" x="7.07544" y="14.2903" width="7.19819" height="9.90889" filterUnits="userSpaceOnUse" color-interpolation-filters="sRGB">
<feFlood flood-opacity="0" result="BackgroundImageFix"/>
<feBlend mode="normal" in="SourceGraphic" in2="BackgroundImageFix" result="shape"/>
<feColorMatrix in="SourceAlpha" type="matrix" values="0 0 0 0 0 0 0 0 0 0 0 0 0 0 0 0 0 0 127 0" result="hardAlpha"/>
<feOffset dx="0.3" dy="-0.3"/>
<feGaussianBlur stdDeviation="0.225"/>
<feComposite in2="hardAlpha" operator="arithmetic" k2="-1" k3="1"/>
<feColorMatrix type="matrix" values="0 0 0 0 0.952941 0 0 0 0 0.929412 0 0 0 0 1 0 0 0 1 0"/>
<feBlend mode="normal" in2="shape" result="effect1_innerShadow_18_25440"/>
</filter>
<filter id="filter4_i_18_25440" x="17.5718" y="14.2693" width="8.12507" height="9.95112" filterUnits="userSpaceOnUse" color-interpolation-filters="sRGB">
<feFlood flood-opacity="0" result="BackgroundImageFix"/>
<feBlend mode="normal" in="SourceGraphic" in2="BackgroundImageFix" result="shape"/>
<feColorMatrix in="SourceAlpha" type="matrix" values="0 0 0 0 0 0 0 0 0 0 0 0 0 0 0 0 0 0 127 0" result="hardAlpha"/>
<feOffset dx="0.3" dy="-0.3"/>
<feGaussianBlur stdDeviation="0.225"/>
<feComposite in2="hardAlpha" operator="arithmetic" k2="-1" k3="1"/>
<feColorMatrix type="matrix" values="0 0 0 0 0.952941 0 0 0 0 0.929412 0 0 0 0 1 0 0 0 1 0"/>
<feBlend mode="normal" in2="shape" result="effect1_innerShadow_18_25440"/>
</filter>
<filter id="filter5_f_18_25440" x="25.5035" y="1.8125" width="5.5" height="28.375" filterUnits="userSpaceOnUse" color-interpolation-filters="sRGB">
<feFlood flood-opacity="0" result="BackgroundImageFix"/>
<feBlend mode="normal" in="SourceGraphic" in2="BackgroundImageFix" result="shape"/>
<feGaussianBlur stdDeviation="1" result="effect1_foregroundBlur_18_25440"/>
</filter>
<filter id="filter6_f_18_25440" x="2.77991" y="1.125" width="27.2812" height="5.5" filterUnits="userSpaceOnUse" color-interpolation-filters="sRGB">
<feFlood flood-opacity="0" result="BackgroundImageFix"/>
<feBlend mode="normal" in="SourceGraphic" in2="BackgroundImageFix" result="shape"/>
<feGaussianBlur stdDeviation="1" result="effect1_foregroundBlur_18_25440"/>
</filter>
<linearGradient id="paint0_linear_18_25440" x1="16.0035" y1="12.125" x2="16.0035" y2="29.9375" gradientUnits="userSpaceOnUse">
<stop stop-color="#5CB7FF"/>
<stop offset="1" stop-color="#4878DD"/>
</linearGradient>
<radialGradient id="paint1_radial_18_25440" cx="0" cy="0" r="1" gradientUnits="userSpaceOnUse" gradientTransform="translate(27.7223 4.15625) rotate(136.771) scale(2.14444 2.50466)">
<stop stop-color="#7BD7FF"/>
<stop offset="1" stop-color="#7BD7FF" stop-opacity="0"/>
</radialGradient>
<radialGradient id="paint2_radial_18_25440" cx="0" cy="0" r="1" gradientUnits="userSpaceOnUse" gradientTransform="translate(9.44104 13.6405) rotate(-43.5111) scale(1.63739 1.32423)">
<stop stop-color="#FFFEFF"/>
<stop offset="1" stop-color="#E8DEF9"/>
</radialGradient>
<radialGradient id="paint3_radial_18_25440" cx="0" cy="0" r="1" gradientUnits="userSpaceOnUse" gradientTransform="translate(20.4095 13.6405) rotate(-43.5111) scale(1.63739 1.32423)">
<stop stop-color="#FFFEFF"/>
<stop offset="1" stop-color="#E8DEF9"/>
</radialGradient>
<linearGradient id="paint4_linear_18_25440" x1="28.7535" y1="4.5625" x2="28.7535" y2="27.4375" gradientUnits="userSpaceOnUse">
<stop stop-color="#7FD9FF"/>
<stop offset="1" stop-color="#639DF4"/>
</linearGradient>
<linearGradient id="paint5_linear_18_25440" x1="28.4674" y1="4.12502" x2="2.93616" y2="4.12502" gradientUnits="userSpaceOnUse">
<stop stop-color="#7DD8FF"/>
<stop offset="1" stop-color="#5DB6FF"/>
</linearGradient>
<radialGradient id="paint6_radial_18_25440" cx="0" cy="0" r="1" gradientUnits="userSpaceOnUse" gradientTransform="translate(11.2223 6.89058) rotate(-34.6952) scale(1.72937 0.738194)">
<stop stop-color="#FFFCFF"/>
<stop offset="1" stop-color="#E6E0F3" stop-opacity="0"/>
</radialGradient>
<radialGradient id="paint7_radial_18_25440" cx="0" cy="0" r="1" gradientUnits="userSpaceOnUse" gradientTransform="translate(18.7379 6.04682) rotate(-27.3499) scale(1.0203 2.68092)">
<stop offset="0.106942" stop-color="#FFFCFF"/>
<stop offset="1" stop-color="#E6E0F3" stop-opacity="0"/>
</radialGradient>
</defs>
</svg>

<svg width="100%" height="100%" viewBox="0 0 32 32" xmlns="http://www.w3.org/2000/svg"><g filter="url(#a)"><rect width="27.875" height="27.875" x="2.066" y="2.063" fill="url(#b)" rx="3.6"/><rect width="27.875" height="27.875" x="2.066" y="2.063" fill="url(#c)" rx="3.6"/></g><g filter="url(#d)"><rect width="20.94" height="17.985" x="5.53" y="8.528" stroke="#E5DFF3" rx="2.4"/></g><g filter="url(#e)"><path stroke="#E6DDF7" stroke-linecap="round" d="M16 10.892v13.02"/></g><circle cx="10.516" cy="12.513" r="1.473" fill="url(#f)"/><circle cx="21.484" cy="12.513" r="1.473" fill="url(#g)"/><g filter="url(#h)"><path fill="#E8DBFC" d="M8.89 16.017v7.62a.561.561 0 1 0 1.124 0v-4.145a.51.51 0 0 1 1.021 0v4.146a.561.561 0 1 0 1.123 0v-7.62a.346.346 0 1 1 .693 0v2.114a.561.561 0 1 0 1.123 0V15.59a1 1 0 0 0-1-1H8.075a1 1 0 0 0-1 1v2.542a.561.561 0 1 0 1.123 0v-2.115a.346.346 0 0 1 .692 0"/></g><g filter="url(#i)"><path fill="#E8DBFC" d="M18.282 15.46a1.3 1.3 0 0 1 1.234-.89h3.937a1.3 1.3 0 0 1 1.234.89l.384 1.161h-.002l.298.893a.573.573 0 0 1-1.086.362l-.65-1.947a.336.336 0 0 0-.638.213l.16.48h-.005l1.068 3.301a.4.4 0 0 1-.38.523h-.726v3.213a.562.562 0 0 1-1.123 0v-2.681a.51.51 0 0 0-1.022 0v2.68a.561.561 0 1 1-1.123 0v-3.212h-.701a.4.4 0 0 1-.381-.522l1.058-3.303h-.003l.065-.195.108-.337a.336.336 0 0 0-.65-.16l-.65 1.947a.573.573 0 0 1-1.087-.363l.299-.892h-.002z"/></g><g filter="url(#j)"><path stroke="url(#k)" stroke-linecap="round" stroke-width="1.5" d="M28.254 4.563v22.875"/></g><g filter="url(#l)"><path stroke="url(#m)" stroke-linecap="round" stroke-width="1.5" d="M5.53 3.875H27.31"/></g><path fill="#E5DFF2" d="M12.261 4.725 11.166 6.59a.3.3 0 0 0 .258.452h2.214a.3.3 0 0 0 .257-.455l-1.118-1.864a.3.3 0 0 0-.516.002"/><path fill="url(#n)" d="M12.261 4.725 11.166 6.59a.3.3 0 0 0 .258.452h2.214a.3.3 0 0 0 .257-.455l-1.118-1.864a.3.3 0 0 0-.516.002"/><path fill="#E5DFF2" d="m19.763 6.894 1.095-1.865a.3.3 0 0 0-.258-.452h-2.214a.3.3 0 0 0-.257.454l1.118 1.865a.3.3 0 0 0 .516-.002"/><path fill="url(#o)" d="m19.763 6.894 1.095-1.865a.3.3 0 0 0-.258-.452h-2.214a.3.3 0 0 0-.257.454l1.118 1.865a.3.3 0 0 0 .516-.002"/><defs><filter id="a" width="28.875" height="28.875" x="2.066" y="1.063" color-interpolation-filters="sRGB" filterUnits="userSpaceOnUse"><feFlood flood-opacity="0" result="BackgroundImageFix"/><feBlend in="SourceGraphic" in2="BackgroundImageFix" result="shape"/><feColorMatrix in="SourceAlpha" result="hardAlpha" values="0 0 0 0 0 0 0 0 0 0 0 0 0 0 0 0 0 0 127 0"/><feOffset dx="1" dy="-1"/><feGaussianBlur stdDeviation="1"/><feComposite in2="hardAlpha" k2="-1" k3="1" operator="arithmetic"/><feColorMatrix values="0 0 0 0 0.188235 0 0 0 0 0.470588 0 0 0 0 0.843137 0 0 0 1 0"/><feBlend in2="shape" result="effect1_innerShadow_18_25440"/><feColorMatrix in="SourceAlpha" result="hardAlpha" values="0 0 0 0 0 0 0 0 0 0 0 0 0 0 0 0 0 0 127 0"/><feOffset dy="-1"/><feGaussianBlur stdDeviation="1"/><feComposite in2="hardAlpha" k2="-1" k3="1" operator="arithmetic"/><feColorMatrix values="0 0 0 0 0.27451 0 0 0 0 0.34902 0 0 0 0 0.8 0 0 0 1 0"/><feBlend in2="effect1_innerShadow_18_25440" result="effect2_innerShadow_18_25440"/></filter><filter id="d" width="22.24" height="19.285" x="5.03" y="7.728" color-interpolation-filters="sRGB" filterUnits="userSpaceOnUse"><feFlood flood-opacity="0" result="BackgroundImageFix"/><feBlend in="SourceGraphic" in2="BackgroundImageFix" result="shape"/><feColorMatrix in="SourceAlpha" result="hardAlpha" values="0 0 0 0 0 0 0 0 0 0 0 0 0 0 0 0 0 0 127 0"/><feOffset dx=".3" dy="-.3"/><feGaussianBlur stdDeviation=".15"/><feComposite in2="hardAlpha" k2="-1" k3="1" operator="arithmetic"/><feColorMatrix values="0 0 0 0 0.92549 0 0 0 0 0.886275 0 0 0 0 0.988235 0 0 0 1 0"/><feBlend in2="shape" result="effect1_innerShadow_18_25440"/></filter><filter id="e" width="1.45" height="14.02" x="15.5" y="10.392" color-interpolation-filters="sRGB" filterUnits="userSpaceOnUse"><feFlood flood-opacity="0" result="BackgroundImageFix"/><feBlend in="SourceGraphic" in2="BackgroundImageFix" result="shape"/><feColorMatrix in="SourceAlpha" result="hardAlpha" values="0 0 0 0 0 0 0 0 0 0 0 0 0 0 0 0 0 0 127 0"/><feOffset dx=".45"/><feGaussianBlur stdDeviation=".225"/><feComposite in2="hardAlpha" k2="-1" k3="1" operator="arithmetic"/><feColorMatrix values="0 0 0 0 0.945098 0 0 0 0 0.917647 0 0 0 0 1 0 0 0 1 0"/><feBlend in2="shape" result="effect1_innerShadow_18_25440"/></filter><filter id="h" width="7.198" height="9.909" x="7.075" y="14.29" color-interpolation-filters="sRGB" filterUnits="userSpaceOnUse"><feFlood flood-opacity="0" result="BackgroundImageFix"/><feBlend in="SourceGraphic" in2="BackgroundImageFix" result="shape"/><feColorMatrix in="SourceAlpha" result="hardAlpha" values="0 0 0 0 0 0 0 0 0 0 0 0 0 0 0 0 0 0 127 0"/><feOffset dx=".3" dy="-.3"/><feGaussianBlur stdDeviation=".225"/><feComposite in2="hardAlpha" k2="-1" k3="1" operator="arithmetic"/><feColorMatrix values="0 0 0 0 0.952941 0 0 0 0 0.929412 0 0 0 0 1 0 0 0 1 0"/><feBlend in2="shape" result="effect1_innerShadow_18_25440"/></filter><filter id="i" width="8.125" height="9.951" x="17.572" y="14.269" color-interpolation-filters="sRGB" filterUnits="userSpaceOnUse"><feFlood flood-opacity="0" result="BackgroundImageFix"/><feBlend in="SourceGraphic" in2="BackgroundImageFix" result="shape"/><feColorMatrix in="SourceAlpha" result="hardAlpha" values="0 0 0 0 0 0 0 0 0 0 0 0 0 0 0 0 0 0 127 0"/><feOffset dx=".3" dy="-.3"/><feGaussianBlur stdDeviation=".225"/><feComposite in2="hardAlpha" k2="-1" k3="1" operator="arithmetic"/><feColorMatrix values="0 0 0 0 0.952941 0 0 0 0 0.929412 0 0 0 0 1 0 0 0 1 0"/><feBlend in2="shape" result="effect1_innerShadow_18_25440"/></filter><filter id="j" width="5.5" height="28.375" x="25.503" y="1.813" color-interpolation-filters="sRGB" filterUnits="userSpaceOnUse"><feFlood flood-opacity="0" result="BackgroundImageFix"/><feBlend in="SourceGraphic" in2="BackgroundImageFix" result="shape"/><feGaussianBlur result="effect1_foregroundBlur_18_25440" stdDeviation="1"/></filter><filter id="l" width="27.281" height="5.5" x="2.78" y="1.125" color-interpolation-filters="sRGB" filterUnits="userSpaceOnUse"><feFlood flood-opacity="0" result="BackgroundImageFix"/><feBlend in="SourceGraphic" in2="BackgroundImageFix" result="shape"/><feGaussianBlur result="effect1_foregroundBlur_18_25440" stdDeviation="1"/></filter><radialGradient id="c" cx="0" cy="0" r="1" gradientTransform="matrix(-1.56249 1.46876 -1.71548 -1.82495 27.722 4.156)" gradientUnits="userSpaceOnUse"><stop stop-color="#7BD7FF"/><stop offset="1" stop-color="#7BD7FF" stop-opacity="0"/></radialGradient><radialGradient id="f" cx="0" cy="0" r="1" gradientTransform="matrix(1.1875 -1.12733 .91173 .96039 9.441 13.64)" gradientUnits="userSpaceOnUse"><stop stop-color="#FFFEFF"/><stop offset="1" stop-color="#E8DEF9"/></radialGradient><radialGradient id="g" cx="0" cy="0" r="1" gradientTransform="matrix(1.1875 -1.12733 .91173 .96039 20.41 13.64)" gradientUnits="userSpaceOnUse"><stop stop-color="#FFFEFF"/><stop offset="1" stop-color="#E8DEF9"/></radialGradient><radialGradient id="n" cx="0" cy="0" r="1" gradientTransform="matrix(1.42187 -.98438 .42019 .60694 11.222 6.89)" gradientUnits="userSpaceOnUse"><stop stop-color="#FFFCFF"/><stop offset="1" stop-color="#E6E0F3" stop-opacity="0"/></radialGradient><radialGradient id="o" cx="0" cy="0" r="1" gradientTransform="rotate(-27.35 21.795 -35.483)scale(1.0203 2.68092)" gradientUnits="userSpaceOnUse"><stop offset=".107" stop-color="#FFFCFF"/><stop offset="1" stop-color="#E6E0F3" stop-opacity="0"/></radialGradient><linearGradient id="b" x1="16.003" x2="16.003" y1="12.125" y2="29.938" gradientUnits="userSpaceOnUse"><stop stop-color="#5CB7FF"/><stop offset="1" stop-color="#4878DD"/></linearGradient><linearGradient id="k" x1="28.753" x2="28.753" y1="4.563" y2="27.438" gradientUnits="userSpaceOnUse"><stop stop-color="#7FD9FF"/><stop offset="1" stop-color="#639DF4"/></linearGradient><linearGradient id="m" x1="28.467" x2="2.936" y1="4.125" y2="4.125" gradientUnits="userSpaceOnUse"><stop stop-color="#7DD8FF"/><stop offset="1" stop-color="#5DB6FF"/></linearGradient></defs></svg>
